X:100
T: Der schwatzhafte Junggeselle
N: Q1139O
O: Osteuropa, Ungarn, Kom. Tolnau, Kimling (Dunakoemloed)
N: Melodievergleich zu Q0139M, anderes Lied.
R: 
M: 4/4
L: 1/8
K: G
D2 | G4A2A2 | _B2d2c2A2 | _B4A4 | G4z2
D2 | G2G2A2A2 | _B2d2c2A2 | _B4A2A2 | G4z2
A2 | d4d2d2 | d2c4A2 | G2A2_B2d2 | A4z2
DD | G2G2A2A2 | _B2d2c2A2 | _B4A4 | G4z2
